assets/img/base/logo.svg

<svg width="175" height="56" viewBox="0 0 175 56" fill="none" xmlns="http://www.w3.org/2000/svg">
<path d="M70.728 45.528C60.504 45.528 53.256 37.8 53.256 28.2C53.256 18.6 60.504 10.872 70.728 10.872C76.92 10.872 82.344 14.04 85.128 18.936L82.872 20.232C80.664 16.104 76.008 13.32 70.728 13.32C61.896 13.32 55.8 19.944 55.8 28.2C55.8 36.456 61.896 43.08 70.728 43.08C76.056 43.08 80.76 40.248 82.968 36.024L85.224 37.32C82.488 42.264 77.016 45.528 70.728 45.528ZM110.567 27.576C113.927 28.872 116.327 31.992 116.327 35.832C116.327 40.92 112.247 45 107.159 45H92.6629V11.4H106.055C110.951 11.4 114.887 15.384 114.887 20.232C114.887 23.496 113.159 26.184 110.567 27.576ZM106.055 13.8H95.2069V26.664H106.055C109.511 26.664 112.343 23.784 112.343 20.232C112.343 16.68 109.511 13.8 106.055 13.8ZM107.159 42.6C110.807 42.6 113.783 39.576 113.783 35.832C113.783 32.088 110.807 29.064 107.159 29.064H95.2069V42.6H107.159ZM143.712 11.4V13.8H133.152V45H130.56V13.8H120V11.4H143.712ZM162.577 25.176C168.05 25.176 172.514 29.64 172.514 35.064C172.514 40.536 168.05 45 162.577 45H150.433V11.4H169.778V13.8H152.977V25.176H162.577ZM162.577 42.6C166.61 42.6 169.922 39.24 169.922 35.064C169.922 30.936 166.61 27.576 162.577 27.576H152.977V42.6H162.577Z" fill="#090154"/>
<path d="M37.0992 0.0295792C31.3255 0.53537 26.5921 2.09092 22.4789 4.82983C20.7134 6.01319 19.8068 6.75756 18.194 8.37037C15.7223 10.8325 13.7373 13.5905 12.1245 16.7875C11.7905 17.4651 11.4947 18.009 11.4756 18.009C11.3324 18.009 12.7353 14.7739 13.5369 13.2565C15.2738 9.99272 17.087 7.61645 19.3965 5.61237C19.9881 5.09704 19.8355 5.17338 18.6998 5.96547C16.6098 7.4065 14.2622 9.53464 12.888 11.2333C10.5403 14.144 9.25201 17.1788 8.94663 20.5284C8.72713 22.8665 9.25201 25.6245 10.3686 27.9626C10.9412 29.1651 12.449 31.3791 13.5274 32.6102L13.8232 32.9442L13.7755 32.5148C13.6419 31.3791 13.6228 29.5373 13.7182 27.934C14.4626 15.2606 20.7707 6.33766 31.6023 2.65397C35.0378 1.48015 38.5497 0.850296 42.9205 0.621262C45.3254 0.4972 45.335 0.487656 43.1591 0.201359C42.0712 0.0582085 38.0535 -0.0563087 37.0992 0.0295792Z" fill="#090154"/>
<path d="M33.1189 8.0877C31.5431 8.25815 29.852 8.63184 28.4299 9.11697C27.4209 9.45788 24.2308 10.9985 24.0002 11.2542C23.981 11.2804 25.2205 11.3001 26.7579 11.3001C29.6021 11.3001 30.563 11.346 32.8787 11.6016C37.5774 12.113 42.1416 13.3914 45.62 15.1746C52.029 18.4525 54.8274 21.3803 55.5 28.5C55.548 29.0769 55 26.2115 55 26.5C55.6438 23.8973 54.3392 23.1454 55 21.5C52.5 16 48.7716 13.2799 40.3255 10.3036C39.48 10.0086 38.8266 9.75945 38.865 9.75945C39.1917 9.75289 42.7373 10.8412 44.2459 11.405C45.5335 11.8901 47.4937 12.7817 48.5218 13.3521C49.0119 13.6209 49.9055 14.1978 50.5204 14.6305C51.7215 15.4762 51.7023 15.3909 50.434 14.2174C47.8108 11.7852 44.4381 9.82501 41.3152 8.90063C40.0949 8.54006 38.471 8.21226 37.2795 8.09426C36.0881 7.9697 34.1951 7.9697 33.1189 8.0877Z" fill="#090154"/>
<path d="M0.243223 11.1379C0.080988 11.7105 -0.0430741 14.5258 0.0141853 16.0718C0.310026 23.84 2.83898 30.3866 7.5438 35.5877C10.2922 38.6224 14.2336 41.39 18.3945 43.2032C19.616 43.7281 19.7782 43.833 19.0529 43.6231C17.6978 43.2223 15.3024 42.2298 13.5274 41.3423C10.8935 40.0157 9.03254 38.7179 7.26704 36.9524C6.04551 35.7499 6.09323 35.874 7.51517 37.649C10.8458 41.8194 15.0352 44.7396 19.0148 45.6844C20.2268 45.9803 21.1143 46.0757 22.498 46.0757C23.9868 46.0757 24.8361 45.9707 26.1722 45.6176C28.2526 45.0737 29.8273 44.272 31.8504 42.726C32.757 42.0294 34.2553 40.7124 34.2076 40.6551C34.179 40.6361 33.5587 40.6838 32.8238 40.7601C31.0965 40.951 27.4796 40.9605 25.7237 40.7697C19.3488 40.0921 14.2718 38.0403 10.1109 34.4711C4.46133 29.6136 1.08303 21.7786 0.376828 11.9014C0.329112 11.262 0.281396 10.9852 0.243223 11.1379Z" fill="#090154"/>
<path d="M41.5177 22.5707C41.6799 23.7159 41.6418 28.1058 41.4509 29.6518C40.9451 33.8222 40.0099 37.1051 38.4161 40.2925C35.8776 45.3504 31.6595 49.3395 26.3344 51.7348C22.2499 53.5671 17.7169 54.5596 11.8096 54.9032L10.6167 54.9795L11.4279 55.094C13.6324 55.4281 16.858 55.4758 19.3488 55.2181C26.2008 54.5119 32.1272 51.8494 36.7079 47.4404C39.1223 45.1118 40.7351 43.0028 42.5293 39.8249C42.911 39.1473 43.4168 38.1834 43.6554 37.6776C43.8844 37.1719 44.0562 36.8856 44.018 37.0478C43.894 37.6204 42.9874 39.7581 42.1666 41.4377C40.6397 44.5297 39.3132 46.4288 37.29 48.471C36.0017 49.7689 35.9922 49.7689 36.6602 49.3108C41.0119 46.2952 44.3807 42.2393 45.7167 38.3648C46.3657 36.5038 46.4993 35.6736 46.4993 33.4214C46.4993 31.6749 46.4706 31.2932 46.2798 30.4248C45.6976 27.8481 44.5811 25.6723 42.5484 23.191C41.3936 21.7786 41.4127 21.7786 41.5177 22.5707Z" fill="#090154"/>
</svg>

<svg width="175" height="56" fill="none" xmlns="http://www.w3.org/2000/svg"><path d="M70.728 45.528c-10.224 0-17.472-7.728-17.472-17.328s7.248-17.328 17.472-17.328c6.192 0 11.616 3.168 14.4 8.064l-2.256 1.296c-2.208-4.128-6.864-6.912-12.144-6.912-8.832 0-14.928 6.624-14.928 14.88s6.096 14.88 14.928 14.88c5.328 0 10.032-2.832 12.24-7.056l2.256 1.296c-2.736 4.944-8.208 8.208-14.496 8.208Zm39.839-17.952c3.36 1.296 5.76 4.416 5.76 8.256A9.137 9.137 0 0 1 107.159 45H92.663V11.4h13.392c4.896 0 8.832 3.984 8.832 8.832 0 3.264-1.728 5.952-4.32 7.344ZM106.055 13.8H95.207v12.864h10.848c3.456 0 6.288-2.88 6.288-6.432 0-3.552-2.832-6.432-6.288-6.432Zm1.104 28.8c3.648 0 6.624-3.024 6.624-6.768 0-3.744-2.976-6.768-6.624-6.768H95.207V42.6h11.952Zm36.553-31.2v2.4h-10.56V45h-2.592V13.8H120v-2.4h23.712Zm18.865 13.776c5.473 0 9.937 4.464 9.937 9.888 0 5.472-4.464 9.936-9.937 9.936h-12.144V11.4h19.345v2.4h-16.801v11.376h9.6Zm0 17.424c4.033 0 7.345-3.36 7.345-7.536 0-4.128-3.312-7.488-7.345-7.488h-9.6V42.6h9.6ZM37.1.03c-5.774.505-10.508 2.06-14.621 4.8-1.766 1.183-2.672 1.928-4.285 3.54-2.472 2.463-4.457 5.22-6.07 8.418-.334.677-.63 1.221-.648 1.221-.144 0 1.26-3.235 2.06-4.752 1.738-3.264 3.551-5.64 5.86-7.645.592-.515.44-.439-.696.353-2.09 1.442-4.438 3.57-5.812 5.268-2.348 2.911-3.636 5.946-3.941 9.295-.22 2.338.305 5.097 1.422 7.435.572 1.202 2.08 3.416 3.158 4.647l.296.334-.048-.43c-.133-1.135-.152-2.977-.057-4.58.745-12.673 7.053-21.596 17.884-25.28C35.038 1.48 38.55.85 42.92.621c2.405-.124 2.415-.133.24-.42C42.07.058 38.053-.056 37.1.03Z" fill="#090154"/><path d="M33.119 8.088c-1.576.17-3.267.544-4.69 1.029-1.008.34-4.198 1.881-4.429 2.137-.019.026 1.22.046 2.758.046 2.844 0 3.805.046 6.12.302 4.7.511 9.264 1.79 12.742 3.573 6.409 3.277 9.207 6.205 9.88 13.325.048.577-.5-2.288-.5-2 .644-2.603-.66-3.355 0-5-2.5-5.5-6.228-8.22-14.675-11.196-.845-.295-1.498-.545-1.46-.545.327-.006 3.872 1.082 5.38 1.646 1.288.485 3.249 1.377 4.277 1.947.49.269 1.384.846 1.998 1.278 1.201.846 1.182.76-.086-.413-2.623-2.432-5.996-4.392-9.119-5.316-1.22-.36-2.844-.689-4.035-.807-1.192-.124-3.085-.124-4.161-.006ZM.243 11.138c-.162.572-.286 3.388-.229 4.934.296 7.768 2.825 14.315 7.53 19.516 2.748 3.034 6.69 5.802 10.85 7.615 1.222.525 1.384.63.659.42-1.355-.4-3.75-1.393-5.526-2.28-2.633-1.327-4.494-2.625-6.26-4.39-1.221-1.203-1.174-1.079.248.696 3.33 4.17 7.52 7.09 11.5 8.035 1.212.296 2.1.392 3.483.392 1.489 0 2.338-.105 3.674-.458 2.08-.544 3.655-1.346 5.678-2.892.907-.697 2.405-2.014 2.358-2.07-.029-.02-.65.028-1.384.104-1.727.191-5.344.2-7.1.01-6.375-.678-11.452-2.73-15.613-6.299C4.46 29.614 1.083 21.78.377 11.901c-.048-.639-.096-.916-.134-.763Z" fill="#090154"/><path d="M41.518 22.57c.162 1.146.124 5.536-.067 7.082-.506 4.17-1.441 7.453-3.035 10.64-2.538 5.058-6.756 9.047-12.082 11.443-4.084 1.832-8.617 2.825-14.524 3.168l-1.193.077.81.114c2.205.334 5.431.382 7.922.124 6.852-.706 12.778-3.369 17.359-7.778 2.414-2.328 4.027-4.437 5.821-7.615.382-.678.888-1.642 1.126-2.147.23-.506.401-.792.363-.63-.124.572-1.03 2.71-1.851 4.39-1.527 3.092-2.854 4.99-4.877 7.033-1.288 1.298-1.298 1.298-.63.84 4.352-3.016 7.72-7.072 9.057-10.946.649-1.861.782-2.691.782-4.944 0-1.746-.028-2.128-.22-2.996-.581-2.577-1.698-4.753-3.73-7.234-1.155-1.412-1.136-1.412-1.031-.62Z" fill="#090154"/></svg>
